X:1
T:Title
%%score 1 { 2 | 3 }
L:1/8
Q:1/4=100
M:4/4
K:Db
V:1 treble nm="Grand Piano, Soprano"
V:2 bass nm="Choir Pad, Beyond the Mystic River"
V:3 bass 
V:1
 [DF]4 [DE]D[DF][DE] | D2 [Dd]2 [DB] [Dd]3 | [FA]4 [DF]2 D2 | [CE]6 (3[CE][DF][EG] | %4
w: By~From~Stephen~Collins~Foster,~1851 * * * *||||
 [DF]4 [DE]D[DF][DE] | D2 [Dd]2 [DB] [Dd]3 | [FA]2 [DF]D [DE]2 [CE]2 | D6 z2 | %8
w: ||||
 [Ec]3 [Fd] [Ge]2 [GA]2 | [FA]3 [GB] [FA]2 [Fd]2 | [Gd]2 [GB]2 [DG]2 [GB]2 | [FA]6 (3[CE][DF][EG] | %12
w: ||||
 [DF]4 [DE]D[DF]E | D2 [Dd]2 [DB] [Dd]3 | [FA]2 [DF]D [DE]2 [CE]2 | D8 |] %16
w: ||||
V:2
 A,4 G,F,A,G, | F,2 A,2 G, B,3 | D4 A,2 =G,2 | A,6 z2 | A,4 G,F,A,G, | F,2 A,2 G, B,3 | %6
 D2 A,F, G,2 G,2 | F,6 z2 | A,3 A, A,2[K:treble] C2 | D3 D D2 A,2 | B,2 D2 B,2 D2 | D6 z2 | %12
 A,4 G,F,A,G, | F,2 A,2 G, B,3 | D2 A,F, G,2 G,2 | F,8 |] %16
V:3
 D,4 D,D,D,D, | D,2 F,2 z G,3 | D,4 D,2 B,,2 | A,,6 z2 | D,4 D,D,D,D, | D,2 F,2 z G,3 | %6
 A,2 A,,A,, A,,2 A,,2 | D,6 z2 | z4 z2 A,,2 | D,3 D, D,2 D,2 | G,2 G,2 G,2 G,2 | D,6 z2 | %12
 D,4 D,D,D,D, | D,2 F,2 z G,3 | A,2 A,,A,, A,,2 A,,2 | D,8 |] %16

